OneDrive/Desktop/satoshe-sluggers/public/icons/nft-sidebar-categories/shirt-red.svg

<svg width="10" height="10" viewBox="0 0 10 10" fill="none" xmlns="http://www.w3.org/2000/svg">
<path d="M8.43871 1.584L6.64139 1C6.64139 1.42435 6.46846 1.83131 6.16064 2.13137C5.85282 2.43143 5.43532 2.6 5 2.6C4.56468 2.6 4.14718 2.43143 3.83936 2.13137C3.53154 1.83131 3.35861 1.42435 3.35861 1L1.56129 1.584C1.37556 1.64432 1.21807 1.76737 1.11724 1.93094C1.0164 2.09451 0.978876 2.28783 1.01143 2.476L1.24943 3.864C1.26505 3.95797 1.31454 4.04342 1.389 4.10501C1.46346 4.16659 1.55802 4.20027 1.65567 4.2H2.53792V8.2C2.53792 8.64 2.90723 9 3.35861 9H6.64139C6.85905 9 7.0678 8.91571 7.22171 8.76569C7.37562 8.61566 7.46208 8.41217 7.46208 8.2V4.2H8.34433C8.44198 4.20027 8.53654 4.16659 8.611 4.10501C8.68546 4.04342 8.73495 3.95797 8.75057 3.864L8.98857 2.476C9.02112 2.28783 8.9836 2.09451 8.88277 1.93094C8.78193 1.76737 8.62444 1.64432 8.43871 1.584Z" stroke="#D04844" stroke-width="0.8" stroke-linecap="round" stroke-linejoin="round"/>
</svg>

<svg xmlns="http://www.w3.org/2000/svg" width="10" height="10" fill="none"><path stroke="#D04844" stroke-linecap="round" stroke-linejoin="round" stroke-width=".8" d="M8.439 1.584 6.64 1c0 .424-.173.831-.48 1.131-.308.3-.726.469-1.161.469s-.853-.169-1.16-.469A1.58 1.58 0 0 1 3.358 1l-1.798.584a.82.82 0 0 0-.444.347.78.78 0 0 0-.106.545l.238 1.388c.016.094.066.18.14.241a.42.42 0 0 0 .267.095h.882v4c0 .44.37.8.82.8h3.283a.83.83 0 0 0 .58-.234.8.8 0 0 0 .241-.566v-4h.882a.42.42 0 0 0 .267-.095.4.4 0 0 0 .14-.241l.238-1.388a.78.78 0 0 0-.106-.545.82.82 0 0 0-.444-.347"/></svg>
